<?xml version="1.0" encoding="UTF-8"?>
<map version="1.10" tiledversion="1.12.1" orientation="orthogonal" renderorder="right-down" width="79" height="53" tilewidth="32" tileheight="32" infinite="0" nextlayerid="5" nextobjectid="84">
 <imagelayer id="2" name="MAPA">
  <image source="mapa_inicial.png" width="2528" height="1686"/>
 </imagelayer>
 <objectgroup id="3" name="COLISÕES">
  <object id="1" x="2.5" y="2" width="2522.5" height="26.5"/>
  <object id="3" x="2498.5" y="32" width="29.5" height="1663.5"/>
  <object id="4" x="1.5" y="1665" width="2494" height="28.5"/>
  <object id="5" x="3" y="25.5" width="27.5" height="1636.5"/>
  <object id="6" x="71.3333" y="1284" width="149.333" height="125.333"/>
  <object id="7" x="217.333" y="1272" width="48" height="132"/>
  <object id="8" x="266" y="1262.67" width="56" height="109.333"/>
  <object id="9" x="322.667" y="1228" width="397.333" height="96.6667"/>
  <object id="10" x="578.667" y="1323.33" width="140.667" height="20.6667"/>
  <object id="11" x="635.333" y="1344.67" width="82.6667" height="40.6667"/>
  <object id="12" x="718.667" y="1272.67" width="60.6667" height="164"/>
  <object id="13" x="775.333" y="1312" width="100" height="188.667"/>
  <object id="14" x="874.667" y="1362" width="70.6667" height="141.333"/>
  <object id="15" x="946.667" y="1434" width="190.667" height="72.6667"/>
  <object id="17" x="287.333" y="509.333" width="339.334" height="291.333"/>
  <object id="18" x="880" y="356.667" width="462" height="50.6667"/>
  <object id="19" x="1340.67" y="30.6667" width="120.667" height="332.667"/>
  <object id="20" x="965.333" y="30.6667" width="371.333" height="325"/>
  <object id="21" x="949.333" y="300.667" width="16" height="54.6667"/>
  <object id="22" x="896" y="312" width="50" height="52"/>
  <object id="23" x="429.333" y="106.333" width="114.667" height="150.667"/>
  <object id="24" x="458" y="29.3333" width="50.6667" height="72"/>
  <object id="25" x="506.667" y="21.3333" width="4" height="4"/>
  <object id="34" x="1397" y="440" width="301" height="213"/>
  <object id="35" x="1766" y="325" width="245" height="185"/>
  <object id="36" x="1824" y="294" width="132" height="29"/>
  <object id="37" x="1788" y="25" width="363" height="95"/>
  <object id="38" x="1893" y="125" width="295" height="61"/>
  <object id="39" x="1965" y="181" width="403" height="58"/>
  <object id="40" x="2226" y="239" width="221" height="88"/>
  <object id="41" x="2305" y="327" width="141" height="113"/>
  <object id="42" x="2287" y="434" width="92" height="65"/>
  <object id="43" x="2221" y="461" width="96" height="112"/>
  <object id="44" x="2181" y="539" width="108" height="103"/>
  <object id="45" x="2158" y="585" width="142" height="105"/>
  <object id="46" x="2220" y="675" width="146" height="64"/>
  <object id="47" x="2300" y="733" width="232" height="67"/>
  <object id="48" x="2032" y="1001" width="206" height="207"/>
  <object id="49" x="1493" y="900" width="242" height="206"/>
  <object id="50" x="1569" y="861" width="88" height="38"/>
  <object id="51" x="1733" y="954" width="112" height="154"/>
  <object id="52" x="1394.67" y="1413.33" width="242.667" height="102.667"/>
  <object id="53" x="1516" y="1513.33" width="184" height="49.3333"/>
  <object id="54" x="1638.67" y="1464" width="65.3333" height="193.333"/>
  <object id="55" x="1569.33" y="1566.67" width="180" height="40"/>
  <object id="56" x="1710.67" y="1549.33" width="49.3333" height="129.333"/>
  <object id="60" x="854" y="1508" width="271" height="40"/>
  <object id="66" x="1762" y="1606" width="144.667" height="60.6667"/>
  <object id="67" x="2034" y="692.667" width="114.667" height="54"/>
  <object id="68" x="2137.33" y="764" width="88.6667" height="169.333"/>
  <object id="69" x="1712" y="348" width="57.3333" height="62"/>
  <object id="72" x="893.667" y="448" width="97.3333" height="50.3333"/>
  <object id="73" x="2674" y="1062" width="4" height="10"/>
  <object id="76" x="1155" y="757" width="223" height="179"/>
  <object id="77" x="1236" y="682" width="57" height="76"/>
  <object id="79" x="1499" y="713" width="96" height="49"/>
  <object id="80" x="537" y="31" width="434" height="79"/>
  <object id="81" x="1397" y="1333" width="55" height="58"/>
  <object id="82" x="1698" y="404" width="29" height="38"/>
  <object id="83" x="1115" y="-35"/>
 </objectgroup>
</map>
