<?xml version="1.0" encoding="UTF-8"?>
<map version="1.10" tiledversion="1.12.1" orientation="orthogonal" renderorder="right-down" width="88" height="49" tilewidth="32" tileheight="32" infinite="0" nextlayerid="10" nextobjectid="45">
 <imagelayer id="2" name="floresta">
  <image source="floresta_sombria.png" width="2816" height="1572"/>
 </imagelayer>
 <objectgroup id="9" name="COLISÕES">
  <object id="28" x="-4" y="38" width="908" height="274"/>
  <object id="29" x="540" y="322" width="268" height="348"/>
  <object id="30" x="2" y="312" width="540" height="166"/>
  <object id="31" x="-4" y="480" width="344" height="68"/>
  <object id="32" x="-6" y="560" width="290" height="260"/>
  <object id="33" x="0" y="834" width="192" height="731.273"/>
  <object id="34" x="176" y="1354" width="728" height="215.333"/>
  <object id="35" x="906" y="1484" width="1899.52" height="92.4242"/>
  <object id="36" x="2714" y="-2" width="42" height="1480"/>
  <object id="44" x="2714" y="-2" width="96.5455" height="1480"/>
  <object id="37" x="0" y="2" width="2702" height="40"/>
  <object id="39" x="1676" y="634" width="358" height="298"/>
  <object id="40" x="2420" y="1296" width="294" height="170"/>
  <object id="41" x="2562" y="620" width="144" height="666"/>
 </objectgroup>
 <imagelayer id="7" name="OVERLAY" visible="0" offsetx="-9" offsety="15">
  <image source="overlay_floresta.png" width="2816" height="1536"/>
 </imagelayer>
</map>
